.files/icons/devices/Apple-watch.svg

<svg fill="none" height="48" viewBox="0 0 48 48" width="48" xmlns="http://www.w3.org/2000/svg"><g fill="#000"><path d="m32.901 8.35163c.9597.54691 1.2943 1.76827.7474 2.72787-.547.9597-1.7683 1.2943-2.728.7474-2.0908-1.1916-4.457-1.8269-6.9204-1.8269-7.732 0-14 6.268-14 14s6.268 14 14 14c2.4387 0 4.7823-.6226 6.8581-1.7916.9625-.5419 2.182-.2011 2.724.7614.542.9624.2012 2.182-.7613 2.724-2.6711 1.5042-5.69 2.3062-8.8208 2.3062-9.9411 0-18-8.0589-18-18s8.0589-18 18-18c3.1625 0 6.2106.81837 8.901 2.35163z" opacity=".3"/><path clip-rule="evenodd" d="m35 12c-1.6569 0-3 1.3431-3 3v18c0 1.6569 1.3431 3 3 3h4c1.6569 0 3-1.3431 3-3v-18c0-1.6569-1.3431-3-3-3zm5 9c0 1.6569-1.3431 3-3 3s-3-1.3431-3-3 1.3431-3 3-3 3 1.3431 3 3z" fill-rule="evenodd"/></g></svg>

<svg width="48" height="48" viewBox="0 0 48 48" fill="none" xmlns="http://www.w3.org/2000/svg">
<path opacity="0.3" d="M32.901 8.35163C33.8607 8.89854 34.1953 10.1199 33.6484 11.0795C33.1014 12.0392 31.8801 12.3738 30.9204 11.8269C28.8296 10.6353 26.4634 10 24 10C16.268 10 10 16.268 10 24C10 31.732 16.268 38 24 38C26.4387 38 28.7823 37.3774 30.8581 36.2084C31.8206 35.6665 33.0401 36.0073 33.5821 36.9698C34.1241 37.9322 33.7833 39.1518 32.8208 39.6938C30.1497 41.198 27.1308 42 24 42C14.0589 42 6 33.9411 6 24C6 14.0589 14.0589 6 24 6C27.1625 6 30.2106 6.81837 32.901 8.35163Z" fill="black"/>
<path fill-rule="evenodd" clip-rule="evenodd" d="M35 12C33.3431 12 32 13.3431 32 15V33C32 34.6569 33.3431 36 35 36H39C40.6569 36 42 34.6569 42 33V15C42 13.3431 40.6569 12 39 12H35ZM40 21C40 22.6569 38.6569 24 37 24C35.3431 24 34 22.6569 34 21C34 19.3431 35.3431 18 37 18C38.6569 18 40 19.3431 40 21Z" fill="black"/>
</svg>
